X: 174
T:Chips And Shavings. JaW.173
M:C|
L:1/8
Q:200
S:James Winder Ms, Lancashire, 1835-41
R:Reel
O:England
A:Wyresdale,Lancashire
H:1/8
Z:vmp.Chris Partington, Aug 2004
K:G
dA FD|G2(FE)|FAAF GEE2|dA FD G2(FE)|FAAG FDD2:|!
|:dfaf g2(fe)|dfaf gee2|dfaf g2(fe)|afge fdd2:|]
